X:1
T:My nymph, the dear - Morley
T:#
%%score [ 1 2 { 3 | 4 } 5 ]
L:1/8
Q:1/4=108
M:4/4
K:C
V:1 treble nm="Soprano" snm="S"
V:2 treble nm="Alto" snm="A"
V:3 treble-8 nm="Tenor I" snm="T"
V:4 treble-8 
V:5 bass nm="Bass" snm="B"
V:1
|:"^My nymph, the dear" G4 A2 B2 | c2 A2 B2 B2 | A4 G2"^Thomas Morley\n(1557-1603)" d2- | %3
w: My Nymph the|dear, and her my|dear, I fol\-|
w: Trussed is her|hair in gold, than|gold more yel\-|
 d2 c4 B2 |[M:4/4] A4 G2 E2 | ^F2 G2 A4 | B4 z4 | z4 z2 d2 | e2 ^f2 g2 e2 | ^f2 g2 (agfe | %10
w: * low, I|fol- low, my|dear, I fol-|low|my|nymph the dear, and|her my dear, * * *|
w: * low, more|yel- low, than|gold more yel-|low,|trussed|is her hair in|gold, than gold * * *|
 d2) (g3 f e2) | d8 | B8 :| c2 cd c2 A2 |[M:3/4] B4 A2 x4 | A4 A2 x8 |[M:3/2] A4 A4 z4 | %17
w: * I * *|fol-|low,|Say, did you see her,|the di-|vin- est|crea- ture|
w: * more * *|yel-|low,|||||
[M:4/4] z2 d2 d2 d2 | B4 G4 |[M:4/4] c4 A4 | z8 | z2 g2 g2 g2 |[M:3/2] e2 c2 e4 d2 d2 | %23
w: That ev- er|was of|fea- ture,||that ev- er|was of fea- ture. O|
w: ||||||
[M:4/4] d3 g f2 e2 |[M:3/2] d4 e8 |:[Q:1/4=216] d6 d2 d4 | e8 d4 |[M:4/4][Q:1/4=108] c6 d2 x4 | %28
w: love the world sweet|ma- ker,|Change her mood|and more|hu- mane|
w: |||||
 c4 B4 x4 | A8 x4 | B8 :| x8 :| %32
w: mind- ed|make|her.||
w: ||||
V:2
|: z4 D4 | E2 ^F2 G2 E2 | F4 E2 D2- | D2 E2 (^F2 G2-) |[M:4/4] (G2 ^F2) GB A2 | A2 G2 (G2 ^F2) | %6
w: My|nymph the dear, and|her my dear,|* I fol\- *|* * low, I fol-|low, I fol- *|
w: Trussed|is her hair in|gold, than gold|* more yel\- *|* * low, more yel-|low, more yel\- *|
 G4 z2 G2- | G2 A4 B2 | c2 A2 B2 A2- | A2 B2 A2 (dc | BA B2) A2 G2 | (^F2 G4 F2) | G8 :| %13
w: low, my|* nymph the|dear, and her my|* dear, I fol\- *|* * * low, I|fol\- * *|low.|
w: low, trussed|* is her|hair in gold, than|* gold more yel\- *|* * * low, more|yel\- * *|low.|
 G2 GG G2 ^F2 |[M:3/4] G4 F2 x4 | E4 D2 x8 |[M:3/2] (D2 ^C2) D2 A2 A2 A2 |[M:4/4] ^F4 D4 | G6 E2 | %19
w: Say, did you see her,|the di-|vin- est|crea\- * ture That ev- er|was of|fea- ture,|
w: ||||||
[M:4/4] z4 z2 A2 | A2 A2 ^F2 D2- | D2 (G3 A B2 |[M:3/2] c4) G4 z2 G2 |[M:4/4] G3 G A2 c2- | %24
w: that|ev- er was of|* fea\- * *|* ture. O|love the world sweet|
w: |||||
[M:3/2] c2 B2 c8 |: B6 B2 B4 | c8 B4 |[M:4/4] G6 G2 x4 | G4 G4 x4 | ^F8 x4 | G8 :| x8 :| %32
w: * ma- ker,|Change her mood|and more|hu- mane|mind- ed|make|her.||
w: ||||||||
V:3
|: z8 | z8 | z8 | G4 A2 B2 |[M:4/4][K:treble-8] c2 A2 B2 ^c2 | d2 B2 A4 | G4 z2 d2 | e4 ^f2 g2 | %8
w: |||My nymph the|dear, and her my|dear, I fol-|low, my|nymph the dear,|
w: |||Trussed is her|hair in gold, than|gold more yel-|low, trussed|is her hair|
 e2 d4 ^c2 | d2 d2 d4- | d4 c2 G2 | d8 | d8 :| e2 ed e2 d2 |[M:4/4] d4 d2 A4 | A2 A4 A8 | %16
w: and her my|dear, I fol\-|* low, I|fol-|low.|Say, did you see her,|the di- vin-|est crea- ture|
w: in gold, than|gold more yel\-|* low, more|yel-|low.||||
[M:3/2] z12 |[M:3/2] z2 g2 g2 g2 z4 | x8 |[M:4/4][K:treble-8] e4 c4 | f4 d2 d2 | d2 d2 B4 | %22
w: |That ev- er||was of|fea- ture, that|ev- er was|
w: ||||||
[M:4/4] G4 c4 x4 |[M:4/4] B2 B2 d3 e |[M:3/2] c2 g2 x8 |:[M:3/2][K:treble-8] g4 g8 | g6 g2 g4 | %27
w: of fea-|ture. O love the|world sweet|ma- ker,|Change her mood|
w: |||||
 g8 g4 |[M:3/2] e6 d2 e4 | d4 d8 | d8 :| x8 :| %32
w: and more|hu- mane mind-|ed make|her.||
w: |||||
V:4
|: z8 | z4 G4 | A2 B2 c2 A2 | B2 c2 d2 d2 |[M:4/4][K:treble-8] e2 d2 d2 A2- | A2 d4 z2 | %6
w: |My|nymph the dear, and|her my dear, I|fol- low, I fol\-|* low,|
w: |Trussed|is her hair in|gold, than gold more|yel- low, more yel\-|* low,|
 d2 e2 ^f2 g2 | e2 c2 d4 | c2 d2 (B2 e2) | d4 z2 A2 | B2 G2 z2 c2- | c2 (B2 A4) | G8 :| %13
w: my nymph the dear,|and her my|dear, I fol\- *|low, I|fol- low, I|* fol\- *|low.|
w: trussed is her hair|in gold, than|gold more yel\- *|low, more|yel- low, more|* yel\- *|low.|
 G2 GG E2 A2 |[M:4/4] G4 A2 x4 | E4 F2 x8 |[M:3/2] E4 ^F4 z2 d2 |[M:3/2] d2 d2 B4- z4 | B2 G4 c2- | %19
w: Say, did you see her,|the di-|vin- est|crea- ture That|ev- er was|* of fea-|
w: ||||||
[M:4/4][K:treble-8] c2 A4 A2- | A2 A2 A2 ^F2- | F2 D4 G2- |[M:4/4] G2 E4 z2 z2 d2 | %23
w: * ture, that|* ev- er was|* of fea-|* ture. O|
w: ||||
[M:4/4] B3 c c2 c2 |[M:3/2] x12 |:[M:3/2][K:treble-8] d4 c8 | d6 d2 d4 | c4 G8 |[M:3/2] G6 G2 x4 | %29
w: love the world sweet||ma- ker,|Change her mood|and more|hu- mane|
w: ||||||
 G4 G4 x4 | A8 :| G8 :| %32
w: mind- ed|make|her.|
w: |||
V:5
|: z8 | z8 | D,4 E,2 ^F,2 | G,2 E,2 D,2 G,2 |[M:4/4] C,2 D,2 (G,2 A,2) | D,8 | z2 G,2 A,2 B,2 | %7
w: ||My nymph the|dear, and her my|dear, I fol\- *|low,|my nymph the|
w: ||Trussed is her|hair in gold, than|gold more yel\- *|low,|trussed is her|
 C2 A,2 D2 B,2 | A,2 D2 (G,2 A,2) | D,2 G,2 ^F,2 D,2 | G,4 C,2- C,2 | D,8 | G,,8 :| %13
w: dear, and her my|dear, I fol\- *|low, and her my|dear, I *|fol-|low.|
w: hair in gold, than|gold more yel\- *|low, than gold more|yel- low, more|yel-|low.|
 C,2 C,B,, C,2 D,2 |[M:3/4] G,,4 D,2 x4 | ^C,4 D,2 x8 |[M:3/2] A,,4 D,8 |[M:4/4] z4 z2 G,2 | %18
w: Say, did you see her,|the di-|vin- est|crea- ture|That|
w: |||||
 G,2 G,2 E,4 |[M:4/4] C,4 F,4 | D,2 D,2 D,2 D,2 | B,,4 G,,4 |[M:3/2] C,8 G,,2 G,2 | %23
w: ev- er was|of fea-|ture, that ev- er|was of|fea- ture. O|
w: |||||
[M:4/4] G,3 E, F,2 C,2 |[M:3/2] G,4 C,8 |: G,6 G,2 G,4 | C,8 G,4 |[M:4/4] C,6 B,,2 x4 | %28
w: love the world sweet|ma- ker,|Change her mood|and more|hu- mane|
w: |||||
 C,4 G,,4 x4 | D,8 x4 | G,,8 :| x8 :| %32
w: mind- ed|make|her.||
w: ||||

